X:381
T:Rocky Road Blues
C:Big Mon
N:Transcribed by Richard A Taylor
R:bluegrass
L:1/8
Q:1/4=120
M:4/4
K:F
z8 | "F"C2 D2 FA _A=A | cf2c2A _AG | F4 {G}_AG/A/ GF | C7/1D | "Bb"B,D F_A GF AG | 
F_A =A_A =AF DC | "F"F4 _A,=A, CD | F4 zD _E=E | "C"c_E =Ec3 cd | f{_a}=a fc Bc _A=A | 
"F"F4 FC A,C | F8 | "F"[_acD][acD] z[acD] [acD][acD] [acD][acD] | [_acD][acD] [acD][acD] [a2c2D2] fc | 
ef fc _a=a fc | ef cB "F7"_A=A _A=A | "Bb"_AF FF A=A _A=A | FF FF _AA AA | "F"FF _EE CC B,B, | 
_A,=A, F2 FD _E=E | "C"c_E =Ec df c2 | (3aaa fc BF _A=A | "F"F2 CB,2C _A,B, | 
F8 | 


